X: 43
T:Codiad yr Haul
T:The Rising of the Sun
M:6/8
L:1/8
Q:110
C:Trad
S:51 Welsh Airs
R:Jig
A:Wales
H:From a facsimile c.1840: A Choice Collection of Fifty-One Welsh Airs
H:adapted for The Harp, Piano-Forte, Harpsichord,
H:Violin, or Flute by Edward Jones
H:"Harper to His Late Majesty King George IV, when
H:Prince of Wales".
Z:brian_martin12345@yahoo.com
K:Bb
"Majestic"
B3A3|BFDB,2z|{B,DF}B>cB AGA|BFDB,2z|!
EGE DFD|CEC B,CD|EDC EDC|{DE}F2FB,2z:||!
B2Bc3|d>cB def|B3c3|Bfdc2z|!
B2Bc2c|(d2e/4d/4c/4B/4) def|B3c2c|Bfd {dB}c2z|!
(d2 e/4d/4c/4B/4) (c2 d/4c/4B/4A/4)|(B2c/4B/4A/4G/4) FAc|
fcA Ffe|d>ec B2 d/e/|fcA Ffe|d>ecB2z:||
